X:1
T:Etude 19, Op 176
T:Jean-Baptiste Duvernoy c. 1802 – c. 1880 
%%score { 1 | ( 2 3 ) }
L:1/8
Q:1/4=94
M:4/4
K:Bb
V:1 treble nm="Piano" snm="Pno."
V:2 bass 
V:3 bass 
V:1
!p!"_dolce""^Andantino" (dedf efeg | f2) (=ef gf_ed) | (cdce dedf | e2) (de fedc) | (dedf efeg | %5
 f2) (=ef bagf) |!>(! (^fgag =f_edc)!>)! | (BAGF GABc) | (dedf efeg | f2) (=ef gf_ed) | %10
 (cdce dedf | e2) (de fedc) | (dedf efeg | f2) (=ef bagf) | (^fgag =f_edc) |!>(! (c4 B2) z2!>)! | %16
!f! [Ac]8 | [Bd]8 | [G=e]8 | [Af]8 |!f! (_e'd'c'b agfe) | (dcBA GFED) | CD_EF GABG | FGAB cd_ec | %24
 (dedf efeg | f2) (=ef gf_ed) | (cdce dedf | e2) (de fedc) | (dedf efeg | f2) (=ef bagf) | %30
 (^fgag =f_edc) |!>(! (BAGF GABc)!>)! |!p! (dedf efeg | f2) (=ef gf_ed) | (cdce dedf | %35
 e2) (de fedc) | (dedf efeg | f2) (=ef bagf) | (^fgag =f_edc) |!>(! (c4 B2) z2!>)! |] %40
V:2
!pp! (B,,2 F,2 C,2 F,2 | D,2 F,2 B,,2 F,2) | (A,,2 F,2 B,,2 F,2 | C,2 F,2 A,,2 F,2) | %4
 (B,,2 F,2 C,2 F,2 | D,2 F,2 D,2 F,2) | (E,4 C,4 | F,4) z4 | (B,,2 F,2 C,2 F,2 | %9
 D,2 F,2 B,,2 F,2) | (A,,2 F,2 B,,2 F,2 | C,2 F,2 A,,2 F,2) | (B,,2 F,2 C,2 F,2 | %13
 D,2 F,2 D,2 F,2) | (E,2 C,2 F,4) | (B,,4- B,,2) x2 |!mf! (F,,G,,A,,B,, C,D,E,F,) | %17
 (B,,C,D,E, F,G,A,B,) | (CB,A,G, F,=E,D,C,) | (F,=E,D,C, B,,A,,G,,F,,) | [A,,C,]4 F,,4 | %21
 [B,,D,]4 F,,4 | [B,,C,]4 F,,4 | [F,,A,,C,]4 z4 | (B,,2 F,2 C,2 F,2 | D,2 F,2 B,,2 F,2) | %26
 (A,,2 F,2 B,,2 F,2 | C,2 F,2 A,,2 F,2) | (B,,2 F,2 C,2 F,2 | D,2 F,2 D,2 F,2) | (E,4 C,4 | %31
 F,4) z4 |!pp! (B,,2 F,2 C,2 F,2 | D,2 F,2 B,,2 F,2) | (A,,2 F,2 B,,2 F,2 | C,2 F,2 A,,2 F,2) | %36
 (B,,2 F,2 C,2 F,2 | D,2 F,2 D,2 F,2) | (E,2 C,2 F,4) | (B,,4- B,,2) x2 |] %40
V:3
 x8 | x8 | x8 | x8 | x8 | x8 | x8 | x8 | x8 | x8 | x8 | x8 | x8 | x8 | x8 | E,2 F,2 D,2 z2 | x8 | %17
 x8 | x8 | x8 | x8 | x8 | x8 | x8 | x8 | x8 | x8 | x8 | x8 | x8 | x8 | x8 | x8 | x8 | x8 | x8 | %36
 x8 | x8 | x8 | E,2 F,2 D,2 z2 |] %40

